packages/foundations/assets/icons/functional/images/transportation/airplane_24_inverted.svg

<svg width="24" height="24" viewBox="0 0 24 24" fill="none" xmlns="http://www.w3.org/2000/svg">
<g clip-path="url(#clip0_2214_6630)">
<path fill-rule="evenodd" clip-rule="evenodd" d="M19.8075 7.78987C19.2548 7.96753 18.7035 8.14692 18.1538 8.32802C17.5632 8.52257 17.3533 9.10044 17.5118 9.58816C17.6704 10.0759 18.205 10.413 18.772 10.2301C19.7527 9.91373 20.7321 9.59554 21.7103 9.27549C21.7936 9.41378 21.8616 9.5579 21.9125 9.70745C22.2295 10.6225 21.7005 11.9615 20.1155 12.4545L15.9605 13.7575L12.7195 19.7095C12.6145 19.9205 12.4385 20.0615 12.2265 20.1325L11.7695 20.2375C11.2765 20.3785 10.7825 19.9905 10.7825 19.4635V15.4125L7.57746 16.3985C5.85246 16.9625 4.30246 15.9405 3.84446 14.6385L2.04846 9.49545C1.90746 9.14345 2.08346 8.75645 2.43646 8.61545L2.99946 8.40345C3.34346 8.24701 3.772 8.28572 4.08492 8.49432L6.41546 10.3415L15.7135 7.45345C16.9655 7.10074 18.5433 7.25926 19.8075 7.78987ZM8.45886 11.4481C7.81386 11.7062 7.66877 12.2563 7.81386 12.7071C7.94743 13.1203 8.45886 13.5561 9.07186 13.3531C9.5949 13.1798 9.88686 12.6201 9.71786 12.0941C9.54886 11.5691 8.96866 11.2441 8.45886 11.4481ZM11.5682 10.4472C11.047 10.619 10.7542 11.1802 10.9232 11.7062C11.0567 12.1194 11.5682 12.5488 12.1813 12.3512C12.7058 12.1821 12.9963 11.6182 12.8273 11.0932C12.7065 10.7174 12.2265 10.2301 11.5682 10.4472ZM14.6776 9.44615C14.4198 9.5358 13.8405 9.92696 14.0117 10.6066C14.1788 11.2699 14.8493 11.4749 15.2912 11.3502C15.733 11.2254 16.1636 10.6713 15.9105 10.0224C15.7475 9.60452 15.1683 9.27549 14.6776 9.44615ZM9.16286 4.00085L12.1369 6.77985L8.69686 7.85285L7.29586 5.05785C7.04986 4.59985 7.33086 4.03685 7.85986 3.89585L8.31786 3.75485C8.63486 3.68485 8.95086 3.79085 9.16286 4.00085Z" fill="#1A1C1F"/>
</g>
<defs>
<clipPath id="clip0_2214_6630">
<rect width="24" height="24" fill="white"/>
</clipPath>
</defs>
</svg>

<svg xmlns="http://www.w3.org/2000/svg" width="24" height="24" fill="none"><g clip-path="url(#a)"><path fill="#1A1C1F" fill-rule="evenodd" d="M19.808 7.79q-.83.267-1.654.538c-.59.195-.8.772-.642 1.26a1 1 0 0 0 1.26.642q1.47-.474 2.938-.955.126.208.203.432c.317.915-.212 2.254-1.797 2.747l-4.155 1.303-3.242 5.952a.83.83 0 0 1-.492.424l-.457.105c-.493.14-.987-.247-.987-.774v-4.051l-3.206.985c-1.725.564-3.275-.457-3.733-1.76L2.048 9.496a.675.675 0 0 1 .388-.88L3 8.403a1.15 1.15 0 0 1 1.086.091l2.33 1.848 9.299-2.889c1.251-.352 2.83-.194 4.094.337m-11.35 3.658c-.644.258-.79.808-.644 1.26.133.412.645.848 1.258.645.523-.173.815-.733.646-1.259-.17-.525-.75-.85-1.26-.646m3.11-1a1.005 1.005 0 0 0-.645 1.258c.134.413.645.843 1.258.645.525-.169.815-.733.646-1.258-.12-.376-.6-.863-1.259-.646m3.11-1.002c-.258.09-.838.481-.666 1.16.167.664.837.869 1.28.744a.995.995 0 0 0 .619-1.328c-.163-.417-.743-.747-1.233-.576M9.163 4.001l2.974 2.779-3.44 1.073-1.401-2.795c-.246-.458.035-1.021.564-1.162l.458-.141A.92.92 0 0 1 9.163 4" clip-rule="evenodd"/></g><defs><clipPath id="a"><path fill="#fff" d="M0 0h24v24H0z"/></clipPath></defs></svg>
